icon/pk/thumbs-down.svg

<svg viewBox="0 0 48 48" fill="none" xmlns="http://www.w3.org/2000/svg" height="1em" width="1em">
  <path d="M20.3793 29.4002V36.6002C20.3793 39.5826 22.7969 42.0002 25.7793 42.0002L32.9793 25.8002V6.00023H12.0633C10.2682 5.97994 8.73244 7.2853 8.46327 9.06023L5.97927 25.2602C5.82077 26.3045 6.12885 27.3657 6.82192 28.1627C7.51499 28.9597 8.52311 29.4122 9.57927 29.4002H20.3793Z" stroke="black" stroke-width="4" stroke-linejoin="round"/>
  <path d="M32.9795 6.00017H37.7855C39.8942 5.96288 41.6968 7.51019 41.9795 9.60017V22.2002C41.6968 24.2901 39.8942 26.0375 37.7855 26.0002H32.9795V6.00017Z" fill="#2F88FF" stroke="black" stroke-width="4" stroke-linejoin="round"/>
</svg>

<svg width="48" height="48" fill="none" xmlns="http://www.w3.org/2000/svg"><path d="M20.38 29.4v7.2a5.4 5.4 0 0 0 5.4 5.4l7.2-16.2V6H12.062a3.6 3.6 0 0 0-3.6 3.06L5.98 25.26a3.6 3.6 0 0 0 3.6 4.14h10.8Z" stroke="#000" stroke-width="4" stroke-linejoin="round"/><path d="M32.98 6h4.806a4.158 4.158 0 0 1 4.194 3.6v12.6c-.283 2.09-2.086 3.838-4.194 3.8H32.98V6Z" fill="#2F88FF" stroke="#000" stroke-width="4" stroke-linejoin="round"/></svg>
